img/beans.svg

<svg width="100" height="100" viewBox="0 0 100 100" fill="none" xmlns="http://www.w3.org/2000/svg">
<path d="M47.14 94.4302C47.062 94.4302 46.984 94.4252 46.905 94.4162C29.286 92.3342 16 73.2142 16 49.9402C16 27.7392 28.096 9.17118 44.763 5.79018C45.526 5.63518 46.309 5.93618 46.77 6.56318C47.232 7.18918 47.289 8.02618 46.916 8.70918C44.75 12.6722 42.17 19.7172 42.17 30.7702C42.17 41.5382 46.164 47.2182 50.026 52.7122C53.332 57.4042 56.17 61.4332 56.17 68.2702C56.17 79.5042 51.589 88.8712 48.858 93.4542C48.494 94.0632 47.839 94.4302 47.14 94.4302ZM41.49 10.9382C28.99 15.9922 20 31.8682 20 49.9402C20 70.2502 31.357 87.6262 46.087 90.2532C48.62 85.7202 52.17 77.6862 52.17 68.2702C52.17 62.7012 49.907 59.4892 46.775 55.0422C42.93 49.5732 38.17 42.8032 38.17 30.7702C38.17 21.9962 39.719 15.4992 41.49 10.9382Z" fill="white"/>
<path d="M55.3499 93.9998C54.7449 93.9998 54.1619 93.7248 53.7779 93.2358C53.3009 92.6308 53.2149 91.8038 53.5569 91.1138C56.1179 85.9288 59.1699 77.7568 59.1699 68.2688C59.1699 60.4828 55.9279 55.8818 52.4949 51.0108C48.8899 45.8868 45.1699 40.5978 45.1699 30.7698C45.1699 14.1358 51.1879 7.34078 52.3939 6.14778C52.8449 5.70078 53.4829 5.49178 54.1109 5.59378C71.1499 8.27478 83.9999 27.3398 83.9999 49.9398C83.9999 71.7778 72.1349 90.2878 55.7869 93.9508C55.6419 93.9838 55.4949 93.9998 55.3499 93.9998ZM54.5539 9.73878C52.9469 11.7808 49.1699 17.9448 49.1699 30.7698C49.1699 39.3318 52.2239 43.6728 55.7599 48.6998C59.2359 53.6328 63.1699 59.2158 63.1699 68.2688C63.1699 76.2568 61.1829 83.3548 59.0049 88.7328C71.3879 83.5048 79.9999 67.9928 79.9999 49.9398C79.9999 29.7768 69.1349 12.7458 54.5539 9.73878Z" fill="white"/>
</svg>

<svg xmlns="http://www.w3.org/2000/svg" xmlns:xlink="http://www.w3.org/1999/xlink" version="1.1" x="0px" y="0px" viewBox="0 0 100 100" enable-background="new 0 0 100 100" xml:space="preserve" style="max-width:100%" height="100%"><path d="M47.14,94.43c-0.078,0-0.156-0.005-0.235-0.014C29.286,92.334,16,73.214,16,49.94C16,27.739,28.096,9.171,44.763,5.79  c0.763-0.155,1.546,0.146,2.007,0.773c0.462,0.626,0.519,1.463,0.146,2.146C44.75,12.672,42.17,19.717,42.17,30.77  c0,10.768,3.994,16.448,7.856,21.942c3.306,4.692,6.144,8.721,6.144,15.558c0,11.234-4.581,20.601-7.312,25.184  C48.494,94.063,47.839,94.43,47.14,94.43z M41.49,10.938C28.99,15.992,20,31.868,20,49.94c0,20.31,11.357,37.686,26.087,40.313  C48.62,85.72,52.17,77.686,52.17,68.27c0-5.569-2.263-8.781-5.395-13.228C42.93,49.573,38.17,42.803,38.17,30.77  C38.17,21.996,39.719,15.499,41.49,10.938z" style="" fill="currentColor"></path><path d="M55.35,94c-0.605,0-1.188-0.275-1.572-0.764c-0.477-0.605-0.563-1.432-0.221-2.122c2.561-5.185,5.613-13.357,5.613-22.845  c0-7.786-3.242-12.387-6.675-17.258C48.89,45.887,45.17,40.598,45.17,30.77c0-16.634,6.018-23.429,7.224-24.622  c0.451-0.447,1.089-0.656,1.717-0.554C71.15,8.275,84,27.34,84,49.94c0,21.838-11.865,40.348-28.213,44.011  C55.642,93.984,55.495,94,55.35,94z M54.554,9.739c-1.607,2.042-5.384,8.206-5.384,21.031c0,8.562,3.054,12.903,6.59,17.93  c3.476,4.933,7.41,10.516,7.41,19.569c0,7.988-1.987,15.086-4.165,20.464C71.388,83.505,80,67.993,80,49.94  C80,29.777,69.135,12.746,54.554,9.739z" style="" fill="currentColor"></path></svg>
